X:437
T:trim test
Q:1/4=140 
M:3/4
L:1/4
K:G
D>ED | G2 G | A3 |
%%MIDI trim 1/10
D>ED | G2 G | A3 |
%%MIDI trim 2/10
D>ED | G2 G | A3 |
%%MIDI trim 3/10
D>ED | G2 G | A3 |